X:176
T:Donnybrook Fair
T:Joy of My Life, The
R:jig
Z:id:hn-jig-176
M:6/8
K:G
~G3 AGA|Bee dBA|BAB GAB|AGE EDE|~G3 AGA|Bee dBA|BAB GAB|1 AGF G2D:|2 AGF GBd||
gfe fed|e/f/ge dBA|Bee dBA|Bee e2f|1 ~g3 fed|ege dBA|
~B3 GAB|AGF GBd:|2 ~g3 aga|bge dBA|BAB GAB|AGF G2D||

